X:1
T:Title
%%score { 1 | 2 }
L:1/8
Q:1/4=100
M:6/8
K:Bb
V:1 treble nm="Grand Piano"
V:2 bass 
V:1
 [DF][DF][DF] [DF][B,D][DF] | [DB]2 [DB] [DB]3 | ccc c2 c | [Fd]6 | [DF][DF][DF] [DF][B,D][DF] | %5
w: E.~A.~Hoffman * * * * *|||||
 B2 B B3 | ddd c2 c | [DB]6 | [Fd][Fd][Fd] c2 c | B6 | GGG B2 B | F6 | [DF][DF][DF] [DF][B,D][DF] | %13
w: ||||||||
 B2 B B3 | ddd c2 c | [DB]6 |] %16
w: |||
V:2
 [B,,B,][B,,B,][B,,B,] [B,,B,][B,,F,][B,,B,] | [B,,F,]2 [B,,F,] [B,,F,]3 | %2
 [F,A,F][F,A,F][F,A,F] [F,A,F]2 [F,A,F] | [B,,B,]6 | [B,,B,][B,,B,][B,,B,] [B,,B,][B,,F,][B,,B,] | %5
 [G,B,D]2 [G,B,D] [G,B,D]3 | [F,B,F][F,B,F][F,B,F] [F,A,F]2 [F,A,E] | [B,,B,]6 | %8
 [B,,B,][B,,B,][B,,B,] [F,A,E]2 [F,A,E] | [G,B,D]6 | [E,B,E][E,B,E][E,B,E] [G,B,E]2 [G,B,E] | %11
 [B,D]6 | [B,,B,][B,,B,][B,,B,] [B,,B,][B,,F,][B,,B,] | [G,B,D]2 [G,B,D] [G,B,D]3 | %14
 [F,B,F][F,B,F][F,B,F] [F,A,F]2 [F,A,E] | [B,,B,]6 |] %16

